!!!ONB: MCCC : IFC0051_01 : Extracted Monophonic Melody
!!!COM: Chopin, Frédéric
!!!OPR: Mazurkas
!!!OMV: 1
!!!SCT: Op.30
!!!ODT: 1835///
**kern
*thru
*staff1
*Ipiano
*>A
*clefG2
*k[b-e-]
*B-:
*M3/4
*MM152
=1
8f
16r
16f
4g
4a
=2
8b-
16r
16cc
4dd
8ee-
8ff
=3
8gg
16r
16aa
4bb-
8aa
8gg
=4
8bb-
16r
16bb-
2dd
=5
8gg
16r
16gg
2a
=6
8dd
16r
16dd
2e
=7
8f
16r
16a
8cc
8ee-
8.gg
16ff
=8
8ddd
16r
16ccc
8bb-
8gg
4ff
=9
8bb-
16r
16bb-
2a
=10
8ff
16r
16ff
2e
=11
8f
16r
16a
8cc
8ee-
8dd
8cc
=12
8dd
16r
16f
4b-
8a
8g
=13
8f
16r
16f
4g
4a
=14
8b-
16r
16cc
4dd
8ee-
8ff
=15
8gg
16r
16aa
4bb-
8aa
8gg
=16
8bb-
16r
16bb-
2dd
=17
8gg
16r
16gg
2a
=18
8dd
16r
16dd
2e
=19
8f
16r
16a
8cc
8ee-
8.gg
16ff
=20
8ddd
16r
16ccc
8bb-
8gg
4ff
=21
8bb-
16r
16bb-
2a
=22
8ff
16r
16ff
2e
=23
8f
16r
16a
8cc
8ee-
8dd
8cc
=24
8dd
16r
16f
4b-
*>B
8a
8b-
=25
8.cc
16dd
4cc
8ee
8ff
=26
8.gg
16aa
4gg
8ff
8dd
=27
8cc
8dd
4cc
8ee
16r
16ff
=28
12gg
12aa
12gg
4.ff
8dd
=29
8cc
8dd
4cc
8ee
8ff
=30
8gg
8aa
4gg
8ff
8dd
=31
8cc
8dd
4cc
8ee
8ff
=32
12gg
12aa
12gg
8.ff
16g
12ff
12g-
12ff
=33
8f
16r
16f
4g
4a
=34
8b-
16r
16cc
4dd
8ee-
8ff
=35
8gg
16r
16aa
4bb-
8aa
8gg
=36
8bb-
16r
16bb-
2dd
=37
8gg
16r
16gg
2a
=38
8dd
16r
16dd
2e
=39
8f
16r
16a
8cc
8ee-
8.gg
16ff
=40
8ddd
16r
16ccc
8bb-
8gg
4ff
=41
8bb-
16r
16bb-
2a
=42
8ff
16r
16ff
2e
=43
8f
16r
16a
8cc
8ee-
8dd
8cc
=44
8dd
16r
16f
4b-
*>B
8a
8b-
=45
8.cc
16dd
4cc
8ee
8ff
=46
8.gg
16aa
4gg
8ff
8dd
=47
8cc
8dd
4cc
8ee
16r
16ff
=48
12gg
12aa
12gg
4.ff
8dd
=49
8cc
8dd
4cc
8ee
8ff
=50
8gg
8aa
4gg
8ff
8dd
=51
8cc
8dd
4cc
8ee
8ff
=52
12gg
12aa
12gg
8.ff
16g
12ff
12g-
12ff
=53
8f
16r
16f
4g
4a
=54
8b-
16r
16cc
4dd
8ee-
8ff
=55
8gg
16r
16aa
4bb-
8aa
8gg
=56
8bb-
16r
16bb-
2dd
=57
8gg
16r
16gg
2a
=58
8dd
16r
16dd
2e
=59
8f
16r
16a
8cc
8ee-
8.gg
16ff
=60
8ddd
16r
16ccc
8bb-
8gg
4ff
=61
8bb-
16r
16bb-
2a
=62
8ff
16r
16ff
2e
=63
8f
16r
16a
8cc
8ee-
8dd
8cc
=64
8dd
16r
16f
4b-
*>C
4r
=65
8ff
16r
16ff
4ee
8dd-
8cc
=66
8b-
16r
16dd-
4cc
8b-
16r
16e
=67
8ff
16r
16ff
4ee
8dd-
8cc
=68
12b-
12cc
12b-
2e
=69
8ff
16r
16ff
4ee
8dd-
8cc
=70
8b-
16r
16dd-
4cc
8b-
16r
16e
=71
8ff
16r
16ff
4ee
8.dd-
16cc
=72
12b-
12cc
12b-
4.a
8g
=73
8f
16r
16f
4g
4a
=74
8b-
16r
16cc
4dd
8ee-
8ff
=75
8gg
16r
16aa
4bb-
8aa
8gg
=76
8bb-
16r
16bb-
2dd
=77
8gg
16r
16gg
2a
=78
8dd
16r
16dd
2e
=79
8f
16r
16a
8cc
8ee-
8.gg
16ff
=80
8ddd
16r
16ccc
8bb-
8gg
4ff
=81
8bb-
16r
16bb-
2a
=82
8ff
16r
16ff
2e
=83
8f
16r
16a
8cc
8ee-
8.dd
16cc
=84
*>C1
8dd
16r
16f
4b-
*>C
4r
=85
8ff
16r
16ff
4ee
8dd-
8cc
=86
8b-
16r
16dd-
4cc
8b-
16r
16e
=87
8ff
16r
16ff
4ee
8dd-
8cc
=88
12b-
12cc
12b-
2e
=89
8ff
16r
16ff
4ee
8dd-
8cc
=90
8b-
16r
16dd-
4cc
8b-
16r
16e
=91
8ff
16r
16ff
4ee
8.dd-
16cc
=92
12b-
12cc
12b-
4.a
8g
=93
8f
16r
16f
4g
4a
=94
8b-
16r
16cc
4dd
8ee-
8ff
=95
8gg
16r
16aa
4bb-
8aa
8gg
=96
8bb-
16r
16bb-
2dd
=97
8gg
16r
16gg
2a
=98
8dd
16r
16dd
2e
=99
8f
16r
16a
8cc
8ee-
8.gg
16ff
=100
8ddd
16r
16ccc
8bb-
8gg
4ff
=101
8bb-
16r
16bb-
2a
=102
8ff
16r
16ff
2e
=103
8f
16r
16a
8cc
8ee-
8.dd
16cc
=104
*>C2
8dd
8f
2bb-
==
*-
